X:104
T:Lark on the Strand, The  
B:CRE1.007 (Fhuiseog ar an Tra)
F:file ID: cre.1/104lark_s
S:Sonny Brogan
M:6/8
Q:160
R:jig
K:G
ABG AGA|BGE G3|ABA GBd|egd edB|
ABG AGA|BGE G2D|ABA G2B|dBG BdB:|
GBd gfg|gba g3|GBd gfg|egd edB|
GBd gfg|gba g3|abg age|egd edB:|

%%%

